resources/icons/svg/functions.svg

<?xml version="1.0" encoding="UTF-8"?>
<svg id="Layer_1" data-name="Layer 1" xmlns="http://www.w3.org/2000/svg" version="1.1" viewBox="0 0 256 256">
  <defs>
    <style>
      .cls-1 {
        fill: #fff;
        isolation: isolate;
        opacity: .6;
        stroke-width: 0px;
      }
    </style>
  </defs>
  <path class="cls-1" d="M49.2,49.2c0-6.2-5-11.2-11.2-11.2s-11.3,5-11.3,11.3v123.7c0,12.4,10.1,22.5,22.5,22.5h67.5v-22.5H49.2v-78.8h67.5v-22.5H49.2v-22.5Z"/>
  <path class="cls-1" d="M128,105.5c0,6.2,5,11.3,11.3,11.3h78.7c6.2,0,11.3-5,11.3-11.3v-45c0-6.2-5-11.3-11.3-11.3h-34.7c-3,0-5.8-1.2-7.9-3.3l-4.7-4.6c-2.1-2.1-5-3.3-7.9-3.3h-23.5c-6.3,0-11.3,5-11.3,11.2v56.3Z"/>
  <path class="cls-1" d="M128,206.8c0,6.2,5,11.3,11.3,11.3h78.7c6.2,0,11.3-5,11.3-11.3v-45c0-6.2-5-11.3-11.3-11.3h-34.7c-3,0-5.8-1.2-7.9-3.3l-4.7-4.7c-2.1-2.1-5-3.3-7.9-3.3h-23.5c-6.2,0-11.3,5-11.3,11.3v56.3h0Z"/>
</svg>

<?xml version="1.0" encoding="utf-8"?>
<!-- Generator: Adobe Illustrator 27.3.1, SVG Export Plug-In . SVG Version: 6.00 Build 0)  -->
<svg version="1.1" id="Layer_1" xmlns="http://www.w3.org/2000/svg" xmlns:xlink="http://www.w3.org/1999/xlink" x="0px" y="0px"
	 viewBox="0 0 256 256" style="enable-background:new 0 0 256 256;" xml:space="preserve">
<style type="text/css">
	.st0{fill:#D6D6D6;}
	.st1{fill:#EBA25C;}
</style>
<path class="st0" d="M49.2,49.2C49.2,43,44.2,38,38,38s-11.3,5-11.3,11.3V83v90c0,12.4,10.1,22.5,22.5,22.5h67.5V173H49.2V94.2h67.5
	V71.7H49.2V49.2z"/>
<path class="st1" d="M128,105.5c0,6.2,5,11.3,11.3,11.3H218c6.2,0,11.3-5,11.3-11.3v-45c0-6.2-5-11.3-11.3-11.3h-34.7
	c-3,0-5.8-1.2-7.9-3.3l-4.7-4.6c-2.1-2.1-5-3.3-7.9-3.3h-23.5C133,38,128,43,128,49.2V105.5z"/>
<path class="st1" d="M128,206.8c0,6.2,5,11.3,11.3,11.3H218c6.2,0,11.3-5,11.3-11.3v-45c0-6.2-5-11.3-11.3-11.3h-34.7
	c-3,0-5.8-1.2-7.9-3.3l-4.7-4.7c-2.1-2.1-5-3.3-7.9-3.3h-23.5c-6.2,0-11.3,5-11.3,11.3V206.8z"/>
</svg>
